MCAD/mechanical-parts/deguisementLaser/PlaqueDeguisementLaser3mmTemplate.svg

<?xml version="1.0" encoding="UTF-8" standalone="no"?>
<svg
   height="210mm"
   width="297mm"
   viewBox="0 0 2970 2100"
   version="1.2"
   id="svg370"
   sodipodi:docname="PlaqueDeguisementLaser3mmTemplate.svg"
   inkscape:version="1.2.2 (732a01da63, 2022-12-09)"
   xmlns:inkscape="http://www.inkscape.org/namespaces/inkscape"
   xmlns:sodipodi="http://sodipodi.sourceforge.net/DTD/sodipodi-0.dtd"
   xmlns="http://www.w3.org/2000/svg"
   xmlns:svg="http://www.w3.org/2000/svg">
  <sodipodi:namedview
     id="namedview372"
     pagecolor="#505050"
     bordercolor="#ffffff"
     borderopacity="1"
     inkscape:showpageshadow="0"
     inkscape:pageopacity="0"
     inkscape:pagecheckerboard="1"
     inkscape:deskcolor="#505050"
     inkscape:document-units="mm"
     showgrid="false"
     inkscape:zoom="1.0556608"
     inkscape:cx="424.85239"
     inkscape:cy="374.17323"
     inkscape:window-width="1920"
     inkscape:window-height="1017"
     inkscape:window-x="1912"
     inkscape:window-y="396"
     inkscape:window-maximized="1"
     inkscape:current-layer="Page005" />
  <title
     id="title278">FreeCAD SVG Export</title>
  <desc
     id="desc280">Drawing page: Page005 exported from FreeCAD document: actuator</desc>
  <defs
     id="defs282" />
  <g
     inkscape:groupmode="layer"
     inkscape:label="TechDraw"
     id="Page005">
    <g
       stroke-linecap="square"
       stroke="#000000"
       fill="none"
       id="DrawingContent"
       stroke-linejoin="bevel"
       stroke-width="1"
       fill-rule="evenodd"
       transform="rotate(180,815.4,882)">
      <g
         stroke-linecap="square"
         font-weight="400"
         stroke="#000000"
         stroke-opacity="1"
         font-style="normal"
         fill="none"
         font-family="'MS Shell Dlg 2'"
         font-size="29.1042px"
         stroke-linejoin="bevel"
         stroke-width="1"
         transform="translate(815.4,882)"
         id="g286">
        <rect
           height="0"
           width="0"
           y="0"
           x="0"
           id="rect284" />
      </g>
      <g
         fill-opacity="0"
         font-weight="400"
         stroke="none"
         font-style="normal"
         fill="#000000"
         font-family="'MS Shell Dlg 2'"
         font-size="29.1042px"
         transform="translate(815.4,882)"
         id="g290">
        <path
           d="M 685.361,-777 V 791 l -10,10 H 638 v 6 H -638 v -6 h -37.361 l -10,-10 V -777 l 30,-30 H 655.361 l 30,30"
           fill-rule="evenodd"
           vector-effect="non-scaling-stroke"
           id="path288" />
      </g>
      <g
         stroke-linecap="square"
         font-weight="400"
         stroke="#000000"
         stroke-opacity="1"
         font-style="normal"
         fill="none"
         font-family="'MS Shell Dlg 2'"
         font-size="29.1042px"
         stroke-linejoin="bevel"
         stroke-width="1"
         transform="translate(815.4,882)"
         id="g294">
        <rect
           height="0"
           width="0"
           y="0"
           x="0"
           id="rect292" />
      </g>
      <g
         fill-opacity="0"
         font-weight="400"
         stroke="none"
         font-style="normal"
         fill="#000000"
         font-family="'MS Shell Dlg 2'"
         font-size="29.1042px"
         transform="translate(815.4,882)"
         id="g298">
        <path
           d="m -582.5,773 c 0,9.665 -7.835,17.5 -17.5,17.5 -9.665,0 -17.5,-7.835 -17.5,-17.5 0,-9.665 7.835,-17.5 17.5,-17.5 9.665,0 17.5,7.835 17.5,17.5"
           fill-rule="evenodd"
           vector-effect="non-scaling-stroke"
           id="path296" />
      </g>
      <g
         stroke-linecap="square"
         font-weight="400"
         stroke="#000000"
         stroke-opacity="1"
         font-style="normal"
         fill="none"
         font-family="'MS Shell Dlg 2'"
         font-size="29.1042px"
         stroke-linejoin="bevel"
         stroke-width="1"
         transform="translate(815.4,882)"
         id="g302">
        <rect
           height="0"
           width="0"
           y="0"
           x="0"
           id="rect300" />
      </g>
      <g
         fill-opacity="0"
         font-weight="400"
         stroke="none"
         font-style="normal"
         fill="#000000"
         font-family="'MS Shell Dlg 2'"
         font-size="29.1042px"
         transform="translate(815.4,882)"
         id="g306">
        <path
           d="m 617.5,773 c 0,9.665 -7.835,17.5 -17.5,17.5 -9.665,0 -17.5,-7.835 -17.5,-17.5 0,-9.665 7.835,-17.5 17.5,-17.5 9.665,0 17.5,7.835 17.5,17.5"
           fill-rule="evenodd"
           vector-effect="non-scaling-stroke"
           id="path304" />
      </g>
      <g
         stroke-linecap="square"
         font-weight="400"
         stroke="#000000"
         stroke-opacity="1"
         font-style="normal"
         fill="none"
         font-family="'MS Shell Dlg 2'"
         font-size="29.1042px"
         stroke-linejoin="bevel"
         stroke-width="1"
         transform="translate(815.4,882)"
         id="g310">
        <rect
           height="0"
           width="0"
           y="0"
           x="0"
           id="rect308" />
      </g>
      <g
         stroke-linecap="round"
         font-weight="400"
         stroke="#ff0000"
         stroke-opacity="1"
         font-style="normal"
         fill="none"
         font-family="'MS Shell Dlg 2'"
         font-size="29.1042px"
         stroke-linejoin="bevel"
         stroke-width="2.5"
         transform="translate(815.4,882)"
         id="g314">
        <path
           d="M 685.361,-777 V 791"
           fill-rule="evenodd"
           vector-effect="none"
           id="path312" />
      </g>
      <g
         stroke-linecap="round"
         font-weight="400"
         stroke="#ff0000"
         stroke-opacity="1"
         font-style="normal"
         fill="none"
         font-family="'MS Shell Dlg 2'"
         font-size="29.1042px"
         stroke-linejoin="bevel"
         stroke-width="2.5"
         transform="translate(815.4,882)"
         id="g318">
        <path
           d="m 685.361,-777 -30,-30"
           fill-rule="evenodd"
           vector-effect="none"
           id="path316" />
      </g>
      <g
         stroke-linecap="round"
         font-weight="400"
         stroke="#ff0000"
         stroke-opacity="1"
         font-style="normal"
         fill="none"
         font-family="'MS Shell Dlg 2'"
         font-size="29.1042px"
         stroke-linejoin="bevel"
         stroke-width="2.5"
         transform="translate(815.4,882)"
         id="g322">
        <path
           d="m 685.361,791 -10,10"
           fill-rule="evenodd"
           vector-effect="none"
           id="path320" />
      </g>
      <g
         stroke-linecap="round"
         font-weight="400"
         stroke="#ff0000"
         stroke-opacity="1"
         font-style="normal"
         fill="none"
         font-family="'MS Shell Dlg 2'"
         font-size="29.1042px"
         stroke-linejoin="bevel"
         stroke-width="2.5"
         transform="translate(815.4,882)"
         id="g326">
        <path
           d="M -655.361,-807 H 655.361"
           fill-rule="evenodd"
           vector-effect="none"
           id="path324" />
      </g>
      <g
         stroke-linecap="round"
         font-weight="400"
         stroke="#ff0000"
         stroke-opacity="1"
         font-style="normal"
         fill="none"
         font-family="'MS Shell Dlg 2'"
         font-size="29.1042px"
         stroke-linejoin="bevel"
         stroke-width="2.5"
         transform="translate(815.4,882)"
         id="g330">
        <path
           d="M 675.361,801 H 638"
           fill-rule="evenodd"
           vector-effect="none"
           id="path328" />
      </g>
      <g
         stroke-linecap="round"
         font-weight="400"
         stroke="#ff0000"
         stroke-opacity="1"
         font-style="normal"
         fill="none"
         font-family="'MS Shell Dlg 2'"
         font-size="29.1042px"
         stroke-linejoin="bevel"
         stroke-width="2.5"
         transform="translate(815.4,882)"
         id="g334">
        <path
           d="m -655.361,-807 -30,30"
           fill-rule="evenodd"
           vector-effect="none"
           id="path332" />
      </g>
      <g
         stroke-linecap="round"
         font-weight="400"
         stroke="#ff0000"
         stroke-opacity="1"
         font-style="normal"
         fill="none"
         font-family="'MS Shell Dlg 2'"
         font-size="29.1042px"
         stroke-linejoin="bevel"
         stroke-width="2.5"
         transform="translate(815.4,882)"
         id="g338">
        <path
           d="m 638,801 v 6"
           fill-rule="evenodd"
           vector-effect="none"
           id="path336" />
      </g>
      <g
         stroke-linecap="round"
         font-weight="400"
         stroke="#ff0000"
         stroke-opacity="1"
         font-style="normal"
         fill="none"
         font-family="'MS Shell Dlg 2'"
         font-size="29.1042px"
         stroke-linejoin="bevel"
         stroke-width="2.5"
         transform="translate(815.4,882)"
         id="g342">
        <path
           d="M -685.361,791 V -777"
           fill-rule="evenodd"
           vector-effect="none"
           id="path340" />
      </g>
      <g
         stroke-linecap="round"
         font-weight="400"
         stroke="#ff0000"
         stroke-opacity="1"
         font-style="normal"
         fill="none"
         font-family="'MS Shell Dlg 2'"
         font-size="29.1042px"
         stroke-linejoin="bevel"
         stroke-width="2.5"
         transform="translate(815.4,882)"
         id="g346">
        <path
           d="M 638,807 H -638"
           fill-rule="evenodd"
           vector-effect="none"
           id="path344" />
      </g>
      <g
         stroke-linecap="round"
         font-weight="400"
         stroke="#ff0000"
         stroke-opacity="1"
         font-style="normal"
         fill="none"
         font-family="'MS Shell Dlg 2'"
         font-size="29.1042px"
         stroke-linejoin="bevel"
         stroke-width="2.5"
         transform="translate(815.4,882)"
         id="g350">
        <path
           d="m -675.361,801 -10,-10"
           fill-rule="evenodd"
           vector-effect="none"
           id="path348" />
      </g>
      <g
         stroke-linecap="round"
         font-weight="400"
         stroke="#ff0000"
         stroke-opacity="1"
         font-style="normal"
         fill="none"
         font-family="'MS Shell Dlg 2'"
         font-size="29.1042px"
         stroke-linejoin="bevel"
         stroke-width="2.5"
         transform="translate(815.4,882)"
         id="g354">
        <path
           d="m -638,807 v -6"
           fill-rule="evenodd"
           vector-effect="none"
           id="path352" />
      </g>
      <g
         stroke-linecap="round"
         font-weight="400"
         stroke="#ff0000"
         stroke-opacity="1"
         font-style="normal"
         fill="none"
         font-family="'MS Shell Dlg 2'"
         font-size="29.1042px"
         stroke-linejoin="bevel"
         stroke-width="2.5"
         transform="translate(815.4,882)"
         id="g358">
        <path
           d="m -638,801 h -37.361"
           fill-rule="evenodd"
           vector-effect="none"
           id="path356" />
      </g>
      <g
         stroke-linecap="round"
         font-weight="400"
         stroke="#ff0000"
         stroke-opacity="1"
         font-style="normal"
         fill="none"
         font-family="'MS Shell Dlg 2'"
         font-size="29.1042px"
         stroke-linejoin="bevel"
         stroke-width="2.5"
         transform="translate(815.4,882)"
         id="g362">
        <path
           d="m -582.5,773 c 0,9.665 -7.835,17.5 -17.5,17.5 -9.665,0 -17.5,-7.835 -17.5,-17.5 0,-9.665 7.835,-17.5 17.5,-17.5 9.665,0 17.5,7.835 17.5,17.5"
           fill-rule="evenodd"
           vector-effect="none"
           id="path360" />
      </g>
      <g
         stroke-linecap="round"
         font-weight="400"
         stroke="#ff0000"
         stroke-opacity="1"
         font-style="normal"
         fill="none"
         font-family="'MS Shell Dlg 2'"
         font-size="29.1042px"
         stroke-linejoin="bevel"
         stroke-width="2.5"
         transform="translate(815.4,882)"
         id="g366">
        <path
           d="m 617.5,773 c 0,9.665 -7.835,17.5 -17.5,17.5 -9.665,0 -17.5,-7.835 -17.5,-17.5 0,-9.665 7.835,-17.5 17.5,-17.5 9.665,0 17.5,7.835 17.5,17.5"
           fill-rule="evenodd"
           vector-effect="none"
           id="path364" />
      </g>
    </g>
  </g>
</svg>

<?xml version='1.0' encoding='UTF-8' standalone='no'?>
<svg height="210mm" width="297mm" viewBox="0 0 2970 2100" xmlns:xlink="http://www.w3.org/1999/xlink" xmlns:rdf="http://www.w3.org/1999/02/22-rdf-syntax-ns#" xmlns:inkscape="http://www.inkscape.org/namespaces/inkscape" version="1.2" xmlns="http://www.w3.org/2000/svg" xmlns:cc="http://creativecommons.org/ns#" xmlns:freecad="http://www.freecadweb.org/wiki/index.php?title=Svg_Namespace" xmlns:svg="http://www.w3.org/2000/svg" xmlns:dc="http://purl.org/dc/elements/1.1/" baseProfile="tiny">
 <title>FreeCAD SVG Export</title>
 <desc>Drawing page: Page005 exported from FreeCAD document: actuator</desc>
 <defs/>
 <g inkscape:groupmode="layer" inkscape:label="TechDraw" id="Page005">
  <g stroke-linecap="square" stroke="black" fill="none" id="DrawingContent" stroke-linejoin="bevel" stroke-width="1" fill-rule="evenodd">
   <g stroke-linecap="square" font-weight="400" stroke="#000000" stroke-opacity="1" font-style="normal" fill="none" font-family="MS Shell Dlg 2" font-size="29.1042" stroke-linejoin="bevel" stroke-width="1" transform="matrix(1,0,0,1,815.4,882)">
    <rect height="0" width="0" y="0" x="0"/>
   </g>
   <g fill-opacity="0" font-weight="400" stroke="none" font-style="normal" fill="#000000" font-family="MS Shell Dlg 2" font-size="29.1042" transform="matrix(1,0,0,1,815.4,882)">
    <path d="M685.361,-777 L685.361,791 L675.361,801 L638,801 L638,807 L-638,807 L-638,801 L-675.361,801 L-685.361,791 L-685.361,-777 L-655.361,-807 L655.361,-807 L685.361,-777" fill-rule="evenodd" vector-effect="non-scaling-stroke"/>
   </g>
   <g stroke-linecap="square" font-weight="400" stroke="#000000" stroke-opacity="1" font-style="normal" fill="none" font-family="MS Shell Dlg 2" font-size="29.1042" stroke-linejoin="bevel" stroke-width="1" transform="matrix(1,0,0,1,815.4,882)">
    <rect height="0" width="0" y="0" x="0"/>
   </g>
   <g fill-opacity="0" font-weight="400" stroke="none" font-style="normal" fill="#000000" font-family="MS Shell Dlg 2" font-size="29.1042" transform="matrix(1,0,0,1,815.4,882)">
    <path d="M-582.5,773 C-582.5,782.665 -590.335,790.5 -600,790.5 C-609.665,790.5 -617.5,782.665 -617.5,773 C-617.5,763.335 -609.665,755.5 -600,755.5 C-590.335,755.5 -582.5,763.335 -582.5,773 " fill-rule="evenodd" vector-effect="non-scaling-stroke"/>
   </g>
   <g stroke-linecap="square" font-weight="400" stroke="#000000" stroke-opacity="1" font-style="normal" fill="none" font-family="MS Shell Dlg 2" font-size="29.1042" stroke-linejoin="bevel" stroke-width="1" transform="matrix(1,0,0,1,815.4,882)">
    <rect height="0" width="0" y="0" x="0"/>
   </g>
   <g fill-opacity="0" font-weight="400" stroke="none" font-style="normal" fill="#000000" font-family="MS Shell Dlg 2" font-size="29.1042" transform="matrix(1,0,0,1,815.4,882)">
    <path d="M617.5,773 C617.5,782.665 609.665,790.5 600,790.5 C590.335,790.5 582.5,782.665 582.5,773 C582.5,763.335 590.335,755.5 600,755.5 C609.665,755.5 617.5,763.335 617.5,773 " fill-rule="evenodd" vector-effect="non-scaling-stroke"/>
   </g>
   <g stroke-linecap="square" font-weight="400" stroke="#000000" stroke-opacity="1" font-style="normal" fill="none" font-family="MS Shell Dlg 2" font-size="29.1042" stroke-linejoin="bevel" stroke-width="1" transform="matrix(1,0,0,1,815.4,882)">
    <rect height="0" width="0" y="0" x="0"/>
   </g>
   <g stroke-linecap="round" font-weight="400" stroke="#ff0000" stroke-opacity="1" font-style="normal" fill="none" font-family="MS Shell Dlg 2" font-size="29.1042" stroke-linejoin="bevel" stroke-width="2.5" transform="matrix(1,0,0,1,815.4,882)">
    <path d="M685.361,-777 L685.361,791" fill-rule="evenodd" vector-effect="none"/>
   </g>
   <g stroke-linecap="round" font-weight="400" stroke="#ff0000" stroke-opacity="1" font-style="normal" fill="none" font-family="MS Shell Dlg 2" font-size="29.1042" stroke-linejoin="bevel" stroke-width="2.5" transform="matrix(1,0,0,1,815.4,882)">
    <path d="M685.361,-777 L655.361,-807" fill-rule="evenodd" vector-effect="none"/>
   </g>
   <g stroke-linecap="round" font-weight="400" stroke="#ff0000" stroke-opacity="1" font-style="normal" fill="none" font-family="MS Shell Dlg 2" font-size="29.1042" stroke-linejoin="bevel" stroke-width="2.5" transform="matrix(1,0,0,1,815.4,882)">
    <path d="M685.361,791 L675.361,801" fill-rule="evenodd" vector-effect="none"/>
   </g>
   <g stroke-linecap="round" font-weight="400" stroke="#ff0000" stroke-opacity="1" font-style="normal" fill="none" font-family="MS Shell Dlg 2" font-size="29.1042" stroke-linejoin="bevel" stroke-width="2.5" transform="matrix(1,0,0,1,815.4,882)">
    <path d="M-655.361,-807 L655.361,-807" fill-rule="evenodd" vector-effect="none"/>
   </g>
   <g stroke-linecap="round" font-weight="400" stroke="#ff0000" stroke-opacity="1" font-style="normal" fill="none" font-family="MS Shell Dlg 2" font-size="29.1042" stroke-linejoin="bevel" stroke-width="2.5" transform="matrix(1,0,0,1,815.4,882)">
    <path d="M675.361,801 L638,801" fill-rule="evenodd" vector-effect="none"/>
   </g>
   <g stroke-linecap="round" font-weight="400" stroke="#ff0000" stroke-opacity="1" font-style="normal" fill="none" font-family="MS Shell Dlg 2" font-size="29.1042" stroke-linejoin="bevel" stroke-width="2.5" transform="matrix(1,0,0,1,815.4,882)">
    <path d="M-655.361,-807 L-685.361,-777" fill-rule="evenodd" vector-effect="none"/>
   </g>
   <g stroke-linecap="round" font-weight="400" stroke="#ff0000" stroke-opacity="1" font-style="normal" fill="none" font-family="MS Shell Dlg 2" font-size="29.1042" stroke-linejoin="bevel" stroke-width="2.5" transform="matrix(1,0,0,1,815.4,882)">
    <path d="M638,801 L638,807" fill-rule="evenodd" vector-effect="none"/>
   </g>
   <g stroke-linecap="round" font-weight="400" stroke="#ff0000" stroke-opacity="1" font-style="normal" fill="none" font-family="MS Shell Dlg 2" font-size="29.1042" stroke-linejoin="bevel" stroke-width="2.5" transform="matrix(1,0,0,1,815.4,882)">
    <path d="M-685.361,791 L-685.361,-777" fill-rule="evenodd" vector-effect="none"/>
   </g>
   <g stroke-linecap="round" font-weight="400" stroke="#ff0000" stroke-opacity="1" font-style="normal" fill="none" font-family="MS Shell Dlg 2" font-size="29.1042" stroke-linejoin="bevel" stroke-width="2.5" transform="matrix(1,0,0,1,815.4,882)">
    <path d="M638,807 L-638,807" fill-rule="evenodd" vector-effect="none"/>
   </g>
   <g stroke-linecap="round" font-weight="400" stroke="#ff0000" stroke-opacity="1" font-style="normal" fill="none" font-family="MS Shell Dlg 2" font-size="29.1042" stroke-linejoin="bevel" stroke-width="2.5" transform="matrix(1,0,0,1,815.4,882)">
    <path d="M-675.361,801 L-685.361,791" fill-rule="evenodd" vector-effect="none"/>
   </g>
   <g stroke-linecap="round" font-weight="400" stroke="#ff0000" stroke-opacity="1" font-style="normal" fill="none" font-family="MS Shell Dlg 2" font-size="29.1042" stroke-linejoin="bevel" stroke-width="2.5" transform="matrix(1,0,0,1,815.4,882)">
    <path d="M-638,807 L-638,801" fill-rule="evenodd" vector-effect="none"/>
   </g>
   <g stroke-linecap="round" font-weight="400" stroke="#ff0000" stroke-opacity="1" font-style="normal" fill="none" font-family="MS Shell Dlg 2" font-size="29.1042" stroke-linejoin="bevel" stroke-width="2.5" transform="matrix(1,0,0,1,815.4,882)">
    <path d="M-638,801 L-675.361,801" fill-rule="evenodd" vector-effect="none"/>
   </g>
   <g stroke-linecap="round" font-weight="400" stroke="#ff0000" stroke-opacity="1" font-style="normal" fill="none" font-family="MS Shell Dlg 2" font-size="29.1042" stroke-linejoin="bevel" stroke-width="2.5" transform="matrix(1,0,0,1,815.4,882)">
    <path d="M-582.5,773 C-582.5,782.665 -590.335,790.5 -600,790.5 C-609.665,790.5 -617.5,782.665 -617.5,773 C-617.5,763.335 -609.665,755.5 -600,755.5 C-590.335,755.5 -582.5,763.335 -582.5,773 " fill-rule="evenodd" vector-effect="none"/>
   </g>
   <g stroke-linecap="round" font-weight="400" stroke="#ff0000" stroke-opacity="1" font-style="normal" fill="none" font-family="MS Shell Dlg 2" font-size="29.1042" stroke-linejoin="bevel" stroke-width="2.5" transform="matrix(1,0,0,1,815.4,882)">
    <path d="M617.5,773 C617.5,782.665 609.665,790.5 600,790.5 C590.335,790.5 582.5,782.665 582.5,773 C582.5,763.335 590.335,755.5 600,755.5 C609.665,755.5 617.5,763.335 617.5,773 " fill-rule="evenodd" vector-effect="none"/>
   </g>
  </g>
 </g>
</svg>
